X:1
T:Weeding dub
L:1/4
M:4/4
K:Fm
"Introduction" B |c4- | c3 d  &\ =E>F/G// A z | c4 &\ =E>F/G// A z| c3/2 a//g// f z| c4| dd c2| 
c4| cG F2 | F>> G  A>> c| dd c2 | F>>G A>>c | dcF c/e/ |:
"Thème A" ff a/b/ a/g/ |  f f-f/g/ a/b/ | c' c'/d'/ !pralltriller!c'/b/ a/b/ | c' f2 c/e/ | 
f f a/b/ a/g/ | f f-f/g/ a/b/ | c'c'/d'/ c'/a/ c'/a/ |1 f3 c/e/ :|2 f2-f/c/ f/a/ | 
"Thème B"|:c'2-c'/d'/ !pralltriller!c'/=b/ | c'/a/ f> {/g} f =e/f/ | g/=e/ c> {/a}/g f/g/ | a/g/ f a/g/f |
c'2 c'/d'/ !pralltriller!c'/=b/ | c'/a/ f> {/g}f =e/f/ | g/=e/ c a/g/ f/=e/ |1 f2-f/c/ f/a/ :|2 f4 | 
"Milieu" c4 | c3-c/c/ | d4 | c4 | G3-G/F/ | A4 | =E2 G2 | F4 | c3-c/d/ | c4 | 
=B4 | c2 AG | A3-A/B/ | A4 | =E2 G2 | F2-F/ C/ F/A/ | 
